X: 136
T:Ao salir prá romería
M:3/4
L:1/8
Q:250
C:Trad
S:Rep. "Os Morenos de Lavadores"
R:Jota
K:C
GAGE | CDEG c2- | c2 GAGE |CDEF G2- |G2 FEDC |B,CDE F2- |F2 {B}AGFE | GF
ED C2- |C>"F."G :|
EFGA | "~"G2EFGA | "~"G2EFGA | "~"G2 EGF2-| F2 DEFG | "~"F2DEFG | "~"F2D
EFG | "~"F2 DFE2- |E>"F."c
EFGA | "~"G2EFGA | "~"G2EFGA | "~"G2 EGF2-| F2 DEFG | "~"F2DEFG | "~"F2D
FDF | BAGFED |{B,}C6- | C4-CD |: F2-F>"F."c F2- | F2 G2FG | A2GFE2- | E4
- EG| c4B2- | B2 A2GA | B2AG F2- |1 F2-FD :|2 F2"~"A2GA |B2AG F2- | F2 G
2FG |"~"A2 GFE2- | E4- EG | c4 B2- | B2 A2 GA |B2 AG F2- | F2 A2GA| "~"B
2AG F2- |
F2 G2 FG |"~"A2 GF E2- | E6- E>"F."c ||

